lib/logo_tmp/nrk-logo-nrk-1--colorwhite.svg

<svg width="62" height="26" viewBox="0 0 62 26" fill="none" xmlns="http://www.w3.org/2000/svg">
<path d="M31.09 13.56C31.12 13.63 34.39 19 34.39 19H29.77C29.77 19 27.01 14.49 26.63 13.84C26.25 13.2 26.23 12.8 26.61 12.17L29.77 7H34.4L31.06 12.46C30.82 12.87 30.84 13.13 31.09 13.56ZM21.59 19V7H25.8V19H21.6H21.59ZM18.94 6.77C19.5748 6.77264 20.1827 7.02667 20.6306 7.47647C21.0785 7.92627 21.33 8.53521 21.33 9.17C21.33 9.80479 21.0785 10.4137 20.6306 10.8635C20.1827 11.3133 19.5748 11.5674 18.94 11.57C18.307 11.5647 17.7016 11.3095 17.2559 10.86C16.8101 10.4105 16.56 9.80307 16.56 9.17C16.56 8.53693 16.8101 7.92949 17.2559 7.47997C17.7016 7.03046 18.307 6.77527 18.94 6.77ZM12.06 19V7H16.26V19H12.06ZM0 19V7H4.2V19H0ZM9.5 8.93L11.77 19H7.2L4.48 7H7.18C8.33 7 9.29 7.83 9.51 8.93H9.5Z" fill="white"/>
<path d="M37 13C37 16.1826 38.2643 19.2348 40.5147 21.4853C42.7652 23.7357 45.8174 25 49 25C52.1826 25 55.2348 23.7357 57.4853 21.4853C59.7357 19.2348 61 16.1826 61 13C61 9.8174 59.7357 6.76515 57.4853 4.51472C55.2348 2.26428 52.1826 1 49 1C45.8174 1 42.7652 2.26428 40.5147 4.51472C38.2643 6.76515 37 9.8174 37 13Z" fill="#00B8F1"/>
<path d="M51.33 19.13H47.03V10.1H45.24V6.87H51.33V19.13Z" fill="white"/>
</svg>

<svg xmlns="http://www.w3.org/2000/svg" viewBox="0 0 62 26"><path fill="#fff" d="M31.09 13.56c.03.07 3.3 5.44 3.3 5.44h-4.62s-2.76-4.51-3.14-5.16c-.38-.64-.4-1.04-.02-1.67L29.77 7h4.63l-3.34 5.46c-.24.41-.22.67.03 1.1ZM21.59 19V7h4.21v12h-4.21ZM18.94 6.77a2.4 2.4 0 0 1 0 4.8 2.4 2.4 0 0 1 0-4.8ZM12.06 19V7h4.2v12h-4.2ZM0 19V7h4.2v12H0ZM9.5 8.93 11.77 19H7.2L4.48 7h2.7c1.15 0 2.11.83 2.33 1.93H9.5Z"/><path fill="#00B8F1" d="M37 13a12 12 0 1 0 24 0 12 12 0 0 0-24 0Z"/><path fill="#fff" d="M51.33 19.13h-4.3V10.1h-1.79V6.87h6.09v12.26Z"/></svg>
